X:1
T:Lady Harriots Reel. VWMLa.085
L:1/8
Q:1/2=85
M:2/2
I:linebreak $
K:F
V:1 treble 
V:1
 ABcf c2 B>A | f2 (a/g/f) gGGA | ABcf c2 B>A | BGcA F/F/F F2 :: fcfg (f/g/a) gf |$ ecgc acgc | %6
 fcfg (f/g/a) gf | cfeg f/f/f f2 | fcfg (f/g/a) g>f | gfga (g/a/b) a>g |$ fdcB A2 fd | %11
 cABG F/F/F F2 :| %12
